X:410
T:The Pleasures of Life
N:"Tenderly"
N:"collected by J.O'Neill"
N:Irish title: tai.tnea.m na m-bea.ta
B:O'Neill's 410
Z:Transcribed by henrik.norbeck@mailbox.swipnet.se
M:6/8
L:1/8
K:G
B|BcBAB dcBc|dba g2 d|TGFG AGA|BdcB A2 A|
TBAB TcBc|dba g2 d|TBGB TAFA|G3 G2||
d|TdcA ABc|TedB G2 d|TdcA ABc|e3 d2 d|
Tece gfe|dba g2 d|TBGB TAFA|G3 G2||
